X:1
T:Psalm 124
T:A minor         Israel Holdroyd, 1722
T:William Whittingham, 1561 Old Version  (Psalm 124)              10 10 10 10 10                   
T:Transcribed from The Spiritual Man's Companion, 1724
T:No Copyright.  Transcribed from Suffolk Harmony, 1786.
Z:No Copyright.  Transcribed from Suffolk Harmony, 1786.
%%score [ 1 2 3 4 ]
L:1/8
Q:1/4=120
M:2/2
K:C
V:1 treble nm="Tr." snm="Tr."
V:2 treble nm="C." snm="C."
V:3 treble-8 nm="T." snm="T."
V:4 bass nm="B." snm="B."
V:1
"_1.  Now Is–ra–el may say,  and  that  tru – ly,      If  that  the  Lord  had  not  our   cause maintained,  If that the Lord had not our right sus–" A4 A2 B2 | %1
 c4 B4 | A2 ^G2 A2 A2 | ^G8 | B4 A2 ^G2 | c4 B4 | A2 ^G2 cB A2 | B8 | c4 B2 A2 | ^G4 A4 | %10
 B2 A2 B2 c2 | %11
"_1. –tained, When  all  the world against  us  fu–rious–ly    Made their uproars,  and   said,        we                 should          all       die." B8 | %12
 B4 A2 ^G2 | A4 B4 | c2 A2 d4 | d4 c4 || c4 d2 c2 | B4 (A2 B2) | (c2 BA) (B2 A^G) | (AB c2) B4 | %20
 A8 |] %21
V:2
"_2. Then long ago  they had devoured  us  all, And swallowed quick, for ought that we could deem; Such was their rage, as we might well es –\n3. The raging streams most proud in roaring noise, Had  long  ago  o'er-whelmed us  in  the   deep;   Prai–sed be God, which doth  us  safely" E4 E2 G2 | %1
 G4 G4 | E2 ED C2 F2 | E8 | E4 CD EF | G4 G4 | C2 E2 C2 F2 | ^G8 | G4 G2 E2 | E4 E4 | E2 E2 F2 E2 | %11
"_2. –teem   And  as    the floods with mighty force do fall,  So had  they  now our       lives        e'en               brought         to    thrall.\n3.  keep    From  bloody  teeth and their most cruel voice  Which  as  a   prey  to        eat           us                 would            re  – joice." E8 | %12
 E4 CD E2 | E4 G4 | G2 A2 G4 | G4 G4 || G4 G2 E2 | E4 A4 | (G2 FE) (F2 ED) | (CD E2) E4 | E8 |] %21
V:3
"_4. E'en as a bird from  fow–ler's  gin   or   pen   Es – capes  a – way, right  so  it   fares   with    us;  Broke are the nets, and  we  es –ca –ped" A4 c2 d2 | %1
 e4 d4 | c2 B2 A2 d2 | B8 | ^G4 A2 B2 | c4 d4 | c2 B2 AB cd | e8 | e4 d2 c2 | B4 c4 | B2 c2 dc BA | %11
"_4.  thus; God that made heav'n and earth is our help then, His name hath saved us  from        these             wick       –       ed    men." ^G8 | %12
 ^G4 A2 B2 | c4 d4 | e2 d2 c4 | B4 c4 || c4 B2 A2 | ^G4 (c2 d2) | (e2 dc) (d2 cB) | (c2 BA) ^G4 | %20
 A8 |] %21
V:4
 A,4 A,2 G,2 | C,4 G,4 | A,2 E,2 F,2 D,2 | E,8 | E,4 F,2 E,D, | C,4 G,4 | A,2 E,2 F,2 F,2 | E,8 | %8
 C,4 G,2 A,2 | E,4 A,4 | ^G,2 A,2 D,2 A,,2 | E,8 | E,4 F,2 E,2 | A,4 G,4 | %14
"_________________________________________________________\nEdited by B. C. Johnston, 2018\n   Measures 7-8, Counter estimated: scanned image is unclear." E,2 F,2 G,4 | %15
 G,,4 C,4 || C,4 G,2 A,2 | E,4 F,4 | E,4 (D,2 E,2) | (F,2 D,2) E,4 | A,,8 |] %21

